img/enter-icon.svg

<svg width="20" height="19" viewBox="0 0 20 19" fill="none" xmlns="http://www.w3.org/2000/svg">
<path d="M6.04 14.88L12.96 9.5L6.04 4.13V7.04H0V11.96H6.04V14.88Z" fill="white"/>
<path d="M18 0H5C4.46957 0 3.96086 0.210714 3.58579 0.585786C3.21071 0.960859 3 1.46957 3 2V4H5V2H18V17H5V15H3V17C3 17.5304 3.21071 18.0391 3.58579 18.4142C3.96086 18.7893 4.46957 19 5 19H18C18.5304 19 19.0391 18.7893 19.4142 18.4142C19.7893 18.0391 20 17.5304 20 17V2C20 1.46957 19.7893 0.960859 19.4142 0.585786C19.0391 0.210714 18.5304 0 18 0Z" fill="white"/>
</svg>

<svg width="20" height="19" fill="none" xmlns="http://www.w3.org/2000/svg"><path d="M6.04 14.88l6.92-5.38-6.92-5.37v2.91H0v4.92h6.04v2.92z" fill="#fff"/><path d="M18 0H5a2 2 0 00-2 2v2h2V2h13v15H5v-2H3v2a2 2 0 002 2h13a2 2 0 002-2V2a2 2 0 00-2-2z" fill="#fff"/></svg>
